X:16
T:Swiss Waltz. RHu.016
S:R.Hughes MS,1823,Whitchurch,Shrops.
R:Waltz
A:Whitchurch, Shropshire
Z:Neil Brookes 2006
M:3/8
L:1/8
Q:3/8=50
K:C
e2d|c2c/e/|d/e/B/d/c/e/|GGG|\
e2d|c2c/e/|d/e/B/d/c/e/|c2::!
c/e/|d/f/B/d/c/e/|d/f/B/d/c/e/|d/f/B/d/c/e/|\
GGG|e2d|c2c/e/|d/f/B/d/c/e/|c2::!
G|c/B/c/d/e/f/|geg|ga/b/c’/a/|ge/g/a/g/|\
fd/f/g/f/|ec/e/g/e/|d/e/f/d/c/B/|c2::!
e/g/|f/g/d/g/f/g/|e/g/c/g/e/g/|f/g/d/g/f/g/|e/g/c/g/e/g/|\
f/g/d/g/f/g/|e/g/c’/b/a/^g/|a3/2f/d/B/|c2:|

